src/general/components/img/circle_plus_white.svg

<svg height="50" viewBox="0 0 50 50" width="50" xmlns="http://www.w3.org/2000/svg"><path d="m49 25c0 13.2546017-10.7453628 24-24 24s-24-10.7453983-24-24c0-13.2551697 10.7448303-24 24-24s24 10.7448303 24 24zm-3.978836 0c0-11.0577192-8.9634448-20.02116402-20.021164-20.02116402s-20.02116402 8.96344482-20.02116402 20.02116402c0 11.0571542 8.96398022 20.021164 20.02116402 20.021164s20.021164-8.9640098 20.021164-20.021164zm-22.010582-13.2063492c0-1.0987252.8906928-1.989418 1.989418-1.989418s1.989418.8906928 1.989418 1.989418v26.4126984c0 1.0987252-.8906928 1.989418-1.989418 1.989418s-1.989418-.8906928-1.989418-1.989418zm-11.2169312 15.1957672c-1.0987252 0-1.989418-.8906928-1.989418-1.989418s.8906928-1.989418 1.989418-1.989418h26.4126984c1.0987252 0 1.989418.8906928 1.989418 1.989418s-.8906928 1.989418-1.989418 1.989418z" fill="#fff"/></svg>

<?xml version="1.0" encoding="UTF-8"?>
<svg width="50px" height="50px" viewBox="0 0 50 50" version="1.1" xmlns="http://www.w3.org/2000/svg" xmlns:xlink="http://www.w3.org/1999/xlink">
    <!-- Generator: Sketch 48.2 (47327) - http://www.bohemiancoding.com/sketch -->
    <title>Artboard 5</title>
    <desc>Created with Sketch.</desc>
    <defs></defs>
    <g id="Symbols" stroke="none" stroke-width="1" fill="none" fill-rule="evenodd">
        <g id="Artboard-5" fill="#FFFFFF" fill-rule="nonzero">
            <path d="M49,25 C49,38.2546017 38.2546372,49 25,49 C11.7453628,49 1,38.2546017 1,25 C1,11.7448303 11.7448303,1 25,1 C38.2551697,1 49,11.7448303 49,25 Z M45.021164,25 C45.021164,13.9422808 36.0577192,4.97883598 25,4.97883598 C13.9422808,4.97883598 4.97883598,13.9422808 4.97883598,25 C4.97883598,36.0571542 13.9428162,45.021164 25,45.021164 C36.0571838,45.021164 45.021164,36.0571542 45.021164,25 Z M23.010582,11.7936508 C23.010582,10.6949256 23.9012748,9.8042328 25,9.8042328 C26.0987252,9.8042328 26.989418,10.6949256 26.989418,11.7936508 L26.989418,38.2063492 C26.989418,39.3050744 26.0987252,40.1957672 25,40.1957672 C23.9012748,40.1957672 23.010582,39.3050744 23.010582,38.2063492 L23.010582,11.7936508 Z M11.7936508,26.989418 C10.6949256,26.989418 9.8042328,26.0987252 9.8042328,25 C9.8042328,23.9012748 10.6949256,23.010582 11.7936508,23.010582 L38.2063492,23.010582 C39.3050744,23.010582 40.1957672,23.9012748 40.1957672,25 C40.1957672,26.0987252 39.3050744,26.989418 38.2063492,26.989418 L11.7936508,26.989418 Z" id="Combined-Shape"></path>
        </g>
    </g>
</svg>
